T: King George IV
M: 4/4
L: 1/8
K: Ador
A | "Am"E<A,A,>B, {B,}C>B,A,>A | "Am"E<A,A,>C "G"{B,C}B,>A,G,>A | "Am"E<A,A,>B, "C"{CB,}C>DE>C | "G"B,>DG>E D/C/B,/A,/ G, :|
d | "A"^c<eA>e c>e "D"d/c/B/A/ | "A"^c<eA>e "D"d/c/B/A/ "G"[G3/G,3/]d/ | "A"^c<eA>B "C"{=cB}=c>de>f | "G"{gf}g>a{ga}g>e d/c/B/A/ [G3/G,3/]d/ |
"A"^c<eA>e c>e "D"d/c/B/A/ | "A"^c<eA>e "D"d/c/B/A/ "G"G>B | "Am"{cB}c>e"G"B>d "Am"{AB}A>B"Em"E>F | "G"G>AG>E D/C/B,/A,/ G, |]
